front/public/static/landing/logos/gray/Sumup.svg

<svg fill="none" height="240" viewBox="0 0 600 240" width="600" xmlns="http://www.w3.org/2000/svg"><g fill="#364153"><path d="m207.047 60.9491h-101.142c-4.572 0-8.3816 3.8093-8.3816 8.3809v100.571c0 4.572 3.8096 8.381 8.3816 8.381h101.142c4.572 0 8.381-3.809 8.381-8.381v-100.571c0-4.7621-3.809-8.3809-8.381-8.3809zm-35.619 88.1899c-10.285 10.286-26.666 10.667-37.524 1.334l-.19-.191c-.571-.571-.762-1.714 0-2.476l36.571-36.381c.762-.571 1.715-.571 2.477 0 9.523 11.048 9.142 27.429-1.334 37.714zm7.619-58.095-36.571 36.381c-.762.571-1.714.571-2.476 0-9.524-10.857-9.143-27.238 1.143-37.5237 10.286-10.2858 26.666-10.6668 37.523-1.3335 0 0 .191 0 .191.1905.952.5715.952 1.7146.19 2.2857z"/><path clip-rule="evenodd" d="m371.431 93.5242h-.191c-4.571 0-8.571 1.905-11.428 4.7622-2.857-2.8572-7.048-4.7622-11.429-4.7622h-.19c-8.762 0-16 7.0478-16 15.9998v31.048c.19 2.476 2.095 4.381 4.571 4.381 2.477 0 4.381-1.905 4.572-4.381v-31.048c0-3.809 3.047-6.857 6.857-6.857h.19c3.81 0 6.667 2.857 6.858 6.667v31.238c.23 2.251 1.815 4.381 4.38 4.381 2.477 0 4.382-1.905 4.572-4.381v-31.429c.191-3.619 3.238-6.666 6.857-6.666h.19c3.81 0 6.859 3.047 6.859 6.857v31.238c.188 2.476 2.093 4.381 4.571 4.381 2.475 0 4.38-1.905 4.572-4.381v-31.048c.187-8.762-7.05-15.9998-15.811-15.9998zm-54.095 0c-2.476 0-4.381 1.905-4.572 4.3812v31.0476c0 3.809-3.047 6.857-7.047 6.857h-.191c-3.809 0-7.047-3.048-7.047-6.857v-31.2381c-.191-2.4762-2.096-4.3812-4.572-4.3812s-4.381 1.905-4.571 4.3812v31.0481c0 8.761 7.238 15.999 16.19 15.999h.191c8.952 0 16.19-7.238 16.19-15.999v-30.8576c0-2.4762-2.095-4.3812-4.571-4.3812zm108.189 0c-2.475 0-4.38 1.905-4.571 4.3812v31.0476c0 3.809-3.049 6.857-7.046 6.857h-.191c-3.81 0-7.047-3.048-7.047-6.857v-31.2381c-.191-2.4762-2.096-4.3812-4.571-4.3812-2.479 0-4.384 1.905-4.571 4.3812v31.0481c0 8.761 7.237 15.999 16.189 15.999h.191c8.951 0 16.189-7.238 16.189-15.999v-30.8576c-.192-2.4762-2.093-4.3812-4.572-4.3812z" fill-rule="evenodd"/><path d="m455.81 93.5171h-.188c-9.142 0-16.384 7.2379-16.384 16.1899v56.381c0 2.477 2.097 4.572 4.572 4.572 2.478 0 4.571-2.095 4.571-4.572v-23.428c1.717 1.524 4.575 2.286 7.241 2.286h.188c9.146 0 16.001-7.81 16.001-16.762v-18.858c0-8.952-6.855-15.8089-16.001-15.8089zm7.241 35.0479c0 4.952-3.24 7.047-7.05 7.047h-.191c-3.998 0-7.047-2.095-7.047-7.047v-18.858c0-3.809 3.24-7.047 7.047-7.047h.191c4.001 0 7.05 3.048 7.05 7.047z"/><path clip-rule="evenodd" d="m266.855 113.902c-5.143-2.095-8.381-3.428-8.381-6.476 0-2.476 1.905-4.762 6.286-4.762 2.666 0 4.952 1.143 6.666 3.428 1.143 1.334 2.286 2.096 3.619 2.096 2.667 0 4.762-2.096 4.762-4.572 0-.952-.19-1.904-.762-2.476-2.857-4.381-8.761-7.4286-14.285-7.4286-7.619 0-15.429 4.7622-15.429 13.9046 0 9.334 7.619 12.381 13.905 14.667 4.952 1.905 9.333 3.619 9.333 7.619 0 3.048-2.857 6.095-8.19 6.095-1.715 0-4.762-.381-6.858-2.857-1.143-1.333-2.476-1.905-3.619-1.905-2.476 0-4.761 2.096-4.761 4.572 0 .952.381 1.905.952 2.667 2.857 4.38 9.333 6.476 14.286 6.476 8.381 0 17.523-5.334 17.523-15.048-.19-10.286-8.38-13.524-15.047-16z" fill-rule="evenodd"/><path d="m493.139 93.5183c-4.95 0-9.143 4.0001-9.143 9.1427 0 4.953 4.001 9.143 9.143 9.143 4.953 0 9.146-4 9.146-9.143 0-4.9521-4.001-9.1427-9.146-9.1427zm0 15.9997c-3.807 0-6.855-3.047-6.855-6.857 0-3.8091 3.048-6.8567 6.855-6.8567 3.81 0 6.858 3.0476 6.858 6.8567 0 3.81-3.048 6.857-6.858 6.857z"/><path d="m494.095 103.043c1.14-.19 1.905-1.142 1.905-2.285 0-1.5244-1.144-2.4765-2.858-2.4765h-2.287c-.57 0-.953.381-.953.9521v6.2854c0 .572.383.953.953.953s.952-.381.952-.953v-2.285l2.288 2.857c.187.381.379.381.952.381.762 0 .953-.572.953-.953s-.191-.571-.383-.761zm-.765-1.333h-1.14v-1.9049h1.14c.574 0 .952.3809.952.9529 0 .381-.378.952-.952.952z"/></g></svg>

<svg width="600" height="240" viewBox="0 0 600 240" fill="none" xmlns="http://www.w3.org/2000/svg">
<path d="M207.047 60.9491H105.905C101.333 60.9491 97.5234 64.7584 97.5234 69.33V169.901C97.5234 174.473 101.333 178.282 105.905 178.282H207.047C211.619 178.282 215.428 174.473 215.428 169.901V69.33C215.428 64.5679 211.619 60.9491 207.047 60.9491ZM171.428 149.139C161.143 159.425 144.762 159.806 133.904 150.473L133.714 150.282C133.143 149.711 132.952 148.568 133.714 147.806L170.285 111.425C171.047 110.854 172 110.854 172.762 111.425C182.285 122.473 181.904 138.854 171.428 149.139ZM179.047 91.044L142.476 127.425C141.714 127.996 140.762 127.996 140 127.425C130.476 116.568 130.857 100.187 141.143 89.9013C151.429 79.6155 167.809 79.2345 178.666 88.5678C178.666 88.5678 178.857 88.5678 178.857 88.7583C179.809 89.3298 179.809 90.4729 179.047 91.044Z" fill="#364153"/>
<path fill-rule="evenodd" clip-rule="evenodd" d="M371.431 93.5242H371.24C366.669 93.5242 362.669 95.4292 359.812 98.2864C356.955 95.4292 352.764 93.5242 348.383 93.5242H348.193C339.431 93.5242 332.193 100.572 332.193 109.524V140.572C332.383 143.048 334.288 144.953 336.764 144.953C339.241 144.953 341.145 143.048 341.336 140.572V109.524C341.336 105.715 344.383 102.667 348.193 102.667H348.383C352.193 102.667 355.05 105.524 355.241 109.334V140.572C355.471 142.823 357.056 144.953 359.621 144.953C362.098 144.953 364.003 143.048 364.193 140.572V109.143C364.384 105.524 367.431 102.477 371.05 102.477H371.24C375.05 102.477 378.099 105.524 378.099 109.334V140.572C378.287 143.048 380.192 144.953 382.67 144.953C385.145 144.953 387.05 143.048 387.242 140.572V109.524C387.429 100.762 380.192 93.5242 371.431 93.5242ZM317.336 93.5242C314.86 93.5242 312.955 95.4292 312.764 97.9054V128.953C312.764 132.762 309.717 135.81 305.717 135.81H305.526C301.717 135.81 298.479 132.762 298.479 128.953V97.7149C298.288 95.2387 296.383 93.3337 293.907 93.3337C291.431 93.3337 289.526 95.2387 289.336 97.7149V128.763C289.336 137.524 296.574 144.762 305.526 144.762H305.717C314.669 144.762 321.907 137.524 321.907 128.763V97.9054C321.907 95.4292 319.812 93.5242 317.336 93.5242ZM425.525 93.5242C423.05 93.5242 421.145 95.4292 420.954 97.9054V128.953C420.954 132.762 417.905 135.81 413.908 135.81H413.717C409.907 135.81 406.67 132.762 406.67 128.953V97.7149C406.479 95.2387 404.574 93.3337 402.099 93.3337C399.62 93.3337 397.715 95.2387 397.528 97.7149V128.763C397.528 137.524 404.765 144.762 413.717 144.762H413.908C422.859 144.762 430.097 137.524 430.097 128.763V97.9054C429.905 95.4292 428.004 93.5242 425.525 93.5242Z" fill="#364153"/>
<path d="M455.81 93.5171H455.622C446.48 93.5171 439.238 100.755 439.238 109.707V166.088C439.238 168.565 441.335 170.66 443.81 170.66C446.288 170.66 448.381 168.565 448.381 166.088V142.66C450.098 144.184 452.956 144.946 455.622 144.946H455.81C464.956 144.946 471.811 137.136 471.811 128.184V109.326C471.811 100.374 464.956 93.5171 455.81 93.5171ZM463.051 128.565C463.051 133.517 459.811 135.612 456.001 135.612H455.81C451.812 135.612 448.763 133.517 448.763 128.565V109.707C448.763 105.898 452.003 102.66 455.81 102.66H456.001C460.002 102.66 463.051 105.708 463.051 109.707V128.565Z" fill="#364153"/>
<path fill-rule="evenodd" clip-rule="evenodd" d="M266.855 113.902C261.712 111.807 258.474 110.474 258.474 107.426C258.474 104.95 260.379 102.664 264.76 102.664C267.426 102.664 269.712 103.807 271.426 106.092C272.569 107.426 273.712 108.188 275.045 108.188C277.712 108.188 279.807 106.092 279.807 103.616C279.807 102.664 279.617 101.712 279.045 101.14C276.188 96.759 270.284 93.7114 264.76 93.7114C257.141 93.7114 249.331 98.4736 249.331 107.616C249.331 116.95 256.95 119.997 263.236 122.283C268.188 124.188 272.569 125.902 272.569 129.902C272.569 132.95 269.712 135.997 264.379 135.997C262.664 135.997 259.617 135.616 257.521 133.14C256.378 131.807 255.045 131.235 253.902 131.235C251.426 131.235 249.141 133.331 249.141 135.807C249.141 136.759 249.522 137.712 250.093 138.474C252.95 142.854 259.426 144.95 264.379 144.95C272.76 144.95 281.902 139.616 281.902 129.902C281.712 119.616 273.522 116.378 266.855 113.902Z" fill="#364153"/>
<path d="M493.139 93.5183C488.189 93.5183 483.996 97.5184 483.996 102.661C483.996 107.614 487.997 111.804 493.139 111.804C498.092 111.804 502.285 107.804 502.285 102.661C502.285 97.7089 498.284 93.5183 493.139 93.5183ZM493.139 109.518C489.332 109.518 486.284 106.471 486.284 102.661C486.284 98.8519 489.332 95.8043 493.139 95.8043C496.949 95.8043 499.997 98.8519 499.997 102.661C499.997 106.471 496.949 109.518 493.139 109.518Z" fill="#364153"/>
<path d="M494.095 103.043C495.235 102.853 496 101.901 496 100.758C496 99.2336 494.856 98.2815 493.142 98.2815H490.855C490.285 98.2815 489.902 98.6625 489.902 99.2336V105.519C489.902 106.091 490.285 106.472 490.855 106.472C491.425 106.472 491.807 106.091 491.807 105.519V103.234L494.095 106.091C494.282 106.472 494.474 106.472 495.047 106.472C495.809 106.472 496 105.9 496 105.519C496 105.138 495.809 104.948 495.617 104.758L494.095 103.043ZM493.33 101.71H492.19V99.8051H493.33C493.904 99.8051 494.282 100.186 494.282 100.758C494.282 101.139 493.904 101.71 493.33 101.71Z" fill="#364153"/>
</svg>
